src/android-notifications-off.svg

<?xml version="1.0" encoding="utf-8"?>
<!-- Generated by IcoMoon.io -->
<!DOCTYPE svg PUBLIC "-//W3C//DTD SVG 1.1//EN" "http://www.w3.org/Graphics/SVG/1.1/DTD/svg11.dtd">
<svg version="1.1" xmlns="http://www.w3.org/2000/svg" xmlns:xlink="http://www.w3.org/1999/xlink" width="512" height="512" viewBox="0 0 512 512">
<path fill="#000000" d="M256 463.656c22.814 0 41.475-18.656 41.475-41.656h-82.95c0 23 18.661 41.656 41.475 41.656z"></path>
<path fill="#000000" d="M131.083 107.172l0.053 0.074-33.046-32.969-24.086 24.106 63.042 63.153c-10.158 18.985-16.046 40.66-16.046 63.534v114.555l-41 41.656v20.719h297.743l36.182 36.33 24.079-24.301-12.104-12.029h0.316l-295.133-294.828z"></path>
<path fill="#000000" d="M391 225.070c0-63.526-45-117.677-104-131.218v-14.578c0-17.706-13.371-31.243-31-31.243-17.628 0-31 13.537-31 31.243v14.578c-15 3.438-29.048 9.501-41.75 17.663l207.75 207.84v-94.285z"></path>
</svg>

<?xml version="1.0" encoding="utf-8"?>
<!-- Generator: Adobe Illustrator 16.2.1, SVG Export Plug-In . SVG Version: 6.00 Build 0)  -->
<!DOCTYPE svg PUBLIC "-//W3C//DTD SVG 1.1//EN" "http://www.w3.org/Graphics/SVG/1.1/DTD/svg11.dtd">
<svg version="1.1" id="Layer_1" xmlns="http://www.w3.org/2000/svg" xmlns:xlink="http://www.w3.org/1999/xlink" x="0px" y="0px"
	 width="512px" height="512px" viewBox="0 0 512 512" enable-background="new 0 0 512 512" xml:space="preserve">
<g>
	<path d="M256,463.656c22.814,0,41.475-18.656,41.475-41.656h-82.95C214.525,445,233.186,463.656,256,463.656z"/>
	<path d="M131.083,107.172l0.053,0.074L98.09,74.277L74.004,98.383l63.042,63.153C126.888,180.521,121,202.196,121,225.07v114.555
		l-41,41.656V402h297.743l36.182,36.33l24.079-24.301L425.9,402h0.316L131.083,107.172z"/>
	<path d="M391,225.07c0-63.526-45-117.677-104-131.218V79.274c0-17.706-13.371-31.243-31-31.243c-17.628,0-31,13.537-31,31.243
		v14.578c-15,3.438-29.048,9.501-41.75,17.663L391,319.355V225.07z"/>
</g>
</svg>
